icons/src/trash.svg

<!--Generator: Apple Native CoreSVG 341-->
<!DOCTYPE svg  PUBLIC '-//W3C//DTD SVG 1.1//EN'  'http://www.w3.org/Graphics/SVG/1.1/DTD/svg11.dtd'>
<svg version="1.1" viewBox="0 0 19.268 23.486" xmlns="http://www.w3.org/2000/svg">
 <rect width="19.268" height="23.486" opacity="0"/>
 <path d="m6.5625 18.604c0.37109 0 0.61523-0.2344 0.60547-0.5762l-0.30274-10.449c-0.00976-0.34179-0.2539-0.5664-0.60546-0.5664-0.3711 0-0.61524 0.23437-0.60547 0.57617l0.29297 10.439c0.00976 0.3516 0.2539 0.5762 0.61523 0.5762zm2.8906 0c0.3711 0 0.63478-0.2344 0.63478-0.5762v-10.439c0-0.3418-0.26368-0.57617-0.63478-0.57617-0.37109 0-0.625 0.23437-0.625 0.57617v10.439c0 0.3418 0.25391 0.5762 0.625 0.5762zm2.9004 0c0.3516 0 0.5957-0.2246 0.6055-0.5762l0.293-10.439c0.0097-0.3418-0.2344-0.57617-0.6055-0.57617-0.3516 0-0.5957 0.22461-0.6055 0.57617l-0.293 10.439c-0.0097 0.3418 0.2344 0.5762 0.6055 0.5762zm-7.1875-14.141h1.5527v-2.0898c0-0.55664 0.39063-0.91797 0.97656-0.91797h3.4961c0.5859 0 0.9766 0.36133 0.9766 0.91797v2.0898h1.5527v-2.1875c0-1.416-0.918-2.2754-2.4219-2.2754h-3.7109c-1.5039 0-2.4219 0.85938-2.4219 2.2754zm-4.4336 0.78125h17.451c0.4004 0 0.7226-0.3418 0.7226-0.74219s-0.3222-0.73242-0.7226-0.73242h-17.451c-0.39062 0-0.73242 0.33203-0.73242 0.73242 0 0.41016 0.3418 0.74219 0.73242 0.74219zm4.248 16.504h8.955c1.3965 0 2.334-0.9082 2.4024-2.3046l0.6836-14.385h-1.5723l-0.6543 14.219c-0.0195 0.586-0.4394 0.9961-1.0156 0.9961h-8.6621c-0.55664 0-0.97657-0.4199-1.0059-0.9961l-0.69336-14.219h-1.5332l0.69335 14.395c0.06836 1.3965 0.98633 2.2949 2.4024 2.2949z" fill="#fff"/>
</svg>

<?xml version="1.0" encoding="UTF-8"?>
<!--Generator: Apple Native CoreSVG 341-->
<!DOCTYPE svg
PUBLIC "-//W3C//DTD SVG 1.1//EN"
       "http://www.w3.org/Graphics/SVG/1.1/DTD/svg11.dtd">
<svg version="1.1" xmlns="http://www.w3.org/2000/svg" xmlns:xlink="http://www.w3.org/1999/xlink" viewBox="0 0 19.2676 23.4863">
 <g>
  <rect height="23.4863" opacity="0" width="19.2676" x="0" y="0"/>
  <path d="M6.5625 18.6035C6.93359 18.6035 7.17773 18.3691 7.16797 18.0273L6.86523 7.57812C6.85547 7.23633 6.61133 7.01172 6.25977 7.01172C5.88867 7.01172 5.64453 7.24609 5.6543 7.58789L5.94727 18.0273C5.95703 18.3789 6.20117 18.6035 6.5625 18.6035ZM9.45312 18.6035C9.82422 18.6035 10.0879 18.3691 10.0879 18.0273L10.0879 7.58789C10.0879 7.24609 9.82422 7.01172 9.45312 7.01172C9.08203 7.01172 8.82812 7.24609 8.82812 7.58789L8.82812 18.0273C8.82812 18.3691 9.08203 18.6035 9.45312 18.6035ZM12.3535 18.6035C12.7051 18.6035 12.9492 18.3789 12.959 18.0273L13.252 7.58789C13.2617 7.24609 13.0176 7.01172 12.6465 7.01172C12.2949 7.01172 12.0508 7.23633 12.041 7.58789L11.748 18.0273C11.7383 18.3691 11.9824 18.6035 12.3535 18.6035ZM5.16602 4.46289L6.71875 4.46289L6.71875 2.37305C6.71875 1.81641 7.10938 1.45508 7.69531 1.45508L11.1914 1.45508C11.7773 1.45508 12.168 1.81641 12.168 2.37305L12.168 4.46289L13.7207 4.46289L13.7207 2.27539C13.7207 0.859375 12.8027 0 11.2988 0L7.58789 0C6.08398 0 5.16602 0.859375 5.16602 2.27539ZM0.732422 5.24414L18.1836 5.24414C18.584 5.24414 18.9062 4.90234 18.9062 4.50195C18.9062 4.10156 18.584 3.76953 18.1836 3.76953L0.732422 3.76953C0.341797 3.76953 0 4.10156 0 4.50195C0 4.91211 0.341797 5.24414 0.732422 5.24414ZM4.98047 21.748L13.9355 21.748C15.332 21.748 16.2695 20.8398 16.3379 19.4434L17.0215 5.05859L15.4492 5.05859L14.7949 19.2773C14.7754 19.8633 14.3555 20.2734 13.7793 20.2734L5.11719 20.2734C4.56055 20.2734 4.14062 19.8535 4.11133 19.2773L3.41797 5.05859L1.88477 5.05859L2.57812 19.4531C2.64648 20.8496 3.56445 21.748 4.98047 21.748Z" fill="white"/>
 </g>
</svg>
